X: 2293
M: C
L: 1/8
K: D
(fe) |\
d2(dA) BAFA | d2(dA) BAFA |\
d2(dA) BAFA | ABcA BAFA |\
|: (fg) |\
a2ag f2fe | d2(dA) BAFA |\
abag fgfe | d2(dA) BAFA |\


